X: 3
T:
P: Largo
M: 3/4
L: 1/8
K: Dm
V:1
[| z2 a2 a2 | d'6- |d'^c'd'e'ag | fefedc | BAGABG | A2 z2 ^c2 | d2 b3 b | bg a3 a |
	d'b Tg3a | a6 | z_e'd'c'ba | b2 _e'2c'2 | a2 d'2b2 | g2 c'ab2- | bc'b2Ta>g | g6 | zd'c'bag |
	ac'bagf | gbagfe | f3ga2- | ab Tg3f | eAGBAd | ^c2 zdcf | eagbad' | ^c'2 Tc'3b/c'/ |
	d'ad=c_BG | cgcBAF | BAG^cdF | BGAFGA | d2 b2 g2 | e2 a2 f2 | d2 ge f2- |fg Te3d | d6 |]
V:2
K: Dm
[| defedc | BAGABG | A2z2^c2 | d2a2a2 | d'6- |d'^c'd'e'ag | fed=cdB | cefefF |
	B2B3A | Ad^cfeg | ^f2Tf3e/f/ | gd'g=f_ec | fc'f_edB | _edc^fgB| _ecdBcd | Gc=B=edf | e2Te3d/e/ |
	fcf3f | fde3e | e^cdefe | fded^cd | A2z4 | zAGBAd | ^c2 zdcf | ebagfe |
	f2b2g2 | e2a2f2 | d2gef2- | fgf2Te>d | dadcBG | cgcBAF | BAG^cdF | BGA4 | d6 |]

